!!!!SEGMENT: pl-cz--i-127_anonim--magne-pater-augustine-amatorem-paupertatis.krn
!!!cenid: 16xx:1477
!!!COM: Anonim
!!!COM-rismID:
!!!CDT:
!!!CNT:
!!!OTL: [Magne Pater Augustine] / Amatorem paupertatis
!!!PDT:
!!!AGN:
!!!SMS-siglum: PL-CZ
!!!SMS-shelfmark: I-127
!!!SMS-shelfwork: W
!!!SMS-variant:
!!!SMS-altvar:
!!!NIFC-rismSourceID: 300033553
!!!NIFC-islandoraID: pl-cz:552
!!!URL-pdf-islandora: https://repozytorium.nifc.pl/islandora/object/pl-cz%3A552/datastream/PDF/view
!!!URL-scan: https://polish.musicsources.pl/pl/lokalizacje/galeria/rekopisy/527 @EN{Scan on Polish Music Herritage in Open Access Website} @PL{Skany w portalu Dziedzictwo Muzyki Polskiej w otwartym dostępie}
!!!ONB-nifc:
!!!AIN: 1 alto 1 bass 1 organ 1 soprn 1 tenor
!!!key: a
**kern	**fba	**kern	**text	**text	**text	**kern	**text	**text	**text	**kern	**text	**text	**text	**kern
*part5	*part5	*part4	*part4	*part4	*part4	*part3	*part3	*part3	*part3	*part2	*part2	*part2	*part2	*part1
*staff5	*staff5	*staff4	*staff4	*staff4	*staff4	*staff3	*staff3	*staff3	*staff3	*staff2	*staff2	*staff2	*staff2	*staff1
*	*	*	*verse1	*verse2	*verse3	*	*verse1	*verse2	*verse3	*	*verse1	*verse2	*verse3	*
*I"Organo de S. Augustino	*	*I"Baſso	*	*	*	*I"Tenore.	*	*	*	*I"Alto	*	*	*	*I"[Soprano]
*I'org	*	*I'B	*	*	*	*I'T	*	*	*	*I'A	*	*	*	*I'[S]
*Iorgan	*	*Ibass	*	*	*	*Itenor	*	*	*	*Ialto	*	*	*	*Isoprn
*ICklav	*	*ICvox	*	*	*	*ICvox	*	*	*	*ICvox	*	*	*	*ICvox
*IGcont	*	*IGcoro	*	*	*	*IGcoro	*	*	*	*IGcoro	*	*	*	*IGcoro
*clefF4	*	*clefF4	*	*	*	*clefC4	*	*	*	*clefC3	*	*	*	*
*k[]	*	*k[]	*	*	*	*k[]	*	*	*	*k[]	*	*	*	*
*a:	*	*a:	*	*	*	*a:	*	*	*	*a:	*	*	*	*
*M3/2	*	*M3/2	*	*	*	*M3/2	*	*	*	*M3/2	*	*	*	*
*all\right	*	*all\right	*	*	*	*all\right	*	*	*	*all\right	*	*	*	*
=1	=1	=1	=1	=1	=1	=1	=1	=1	=1	=1	=1	=1	=1	=1
*	*	*	*	*	*	*	*	*	*	*	*v:1	*v:2	*v:3	*
!LO:TX:b:i:t=Amatorem Paupertatis.	!	!	!	!	!	!	!	!	!	!	!	!	!	!LO:TX:t=P:problem=zgodnie z RISM "S missing"
1A	.	1A	A-	Tu	Re-	1c	A-	Tu	Re-	1e	A-	Tu	Re-	1.ryy
*2\right	*	*2\right	*	*	*	*2\right	*	*	*	*2\right	*	*	*	*
2G\	.	2G\	-ma-	de	-gi	2B\	-ma-	de	-gi	2e\	-ma-	de	-gi	.
=2	=2	=2	=2	=2	=2	=2	=2	=2	=2	=2	=2	=2	=2	=2
1F	.	1F	-to-	Vi-	Re-	4A\	-to-	Vi-	Re-	1a	-to-	Vi-	Re-	1.ryy
.	.	.	.	.	.	4B\	.	.	.	.	.	.	.	.
.	.	.	.	.	.	4c\	.	.	.	.	.	.	.	.
.	.	.	.	.	.	4d\	.	.	.	.	.	.	.	.
2E\	6	2E\	-rem	-ta	-gum	2e\	-rem	-ta	-gum	2g\	-rem	-ta	-gum	.
=3	=3	=3	=3	=3	=3	=3	=3	=3	=3	=3	=3	=3	=3	=3
1D	.	1D	Pau-	Mo-	Sa-	(>2A\	pau-	Mo-	Sa-	1f	Pau-	Mo-	Sa-	1.ryy
.	.	.	.	.	.	2B\)	.	.	.	.	.	.	.	.
2C\	.6	2C\	-per-	-na-	-lus	2A\	-per-	-na-	-lus	2e\	-per-	-na-	-l(us),	.
=4	=4	=4	=4	=4	=4	=4	=4	=4	=4	=4	=4	=4	=4	=4
1E	#	1E	-ta-	-cho-	Vi-	1G#X	-ta-	-cho-	vi-	1e	-ta-	-cho-	vi-	1.ryy
2E\	.	2E\	-tis	-rum	-ta	2G#/	-tis	-rum	-ta	2e\	-tis	-rum	-ta,	.
=5	=5	=5	=5	=5	=5	=5	=5	=5	=5	=5	=5	=5	=5	=5
2.A\	.	[>2A\	te	San-	De-	2c\	te	San-	De-	2r	.	.	.	1.ryy
.	.	4A\]	.	.	.	4c\	Col-	.	.	2a\	te	San-	De-	.
4G\	.	4G,<\	.	.	.	4B\	.	.	.	.	.	.	.	.
4A\	.	(>4A\	col-	.	.	4c\	-la[u]-	.	.	2a\	Col-	-ctam	-cus,	.
4B\	.	4B\)	.	.	.	4d\	.	.	.	.	.	.	.	.
=6	=6	=6	=6	=6	=6	=6	=6	=6	=6	=6	=6	=6	=6	=6
2.c\	.	2.c\	-lau-	.	.	4e\	.	.	.	1g	-lau-	Scri-	et	1.ryy
.	.	.	.	.	.	4d\	.	.	.	.	.	.	.	.
.	.	.	.	.	.	4c\	.	.	.	.	.	.	.	.
4B\	.	4B\	.	.	.	4d\	.	.	.	.	.	.	.	.
2A\	5	2A\	.	.	.	4c\	.	.	.	2g\	.	-bis	Im-	.
.	6	.	.	.	.	8B\L	.	.	.	.	.	.	.	.
.	.	.	.	.	.	8A\J	.	.	.	.	.	.	.	.
=7	=7	=7	=7	=7	=7	=7	=7	=7	=7	=7	=7	=7	=7	=7
1G	.	1G	.	ctam	.	2.B\	.	-ctas	-cus	1e	.	Re-	-pe-	1.ryy
.	.	.	.	.	.	8A\L	.	Scri-	Et	.	.	.	.	.
.	.	.	.	.	.	8B\J	.	.	.	.	.	.	.	.
2A\	.	2A\	.	.	.	4c\	.	.	.	4a\	.	.	.	.
.	.	.	.	.	.	8B\L	.	.	.	4g\	.	.	.	.
.	.	.	.	.	.	8c\J	.	.	.	.	.	.	.	.
=8	=8	=8	=8	=8	=8	=8	=8	=8	=8	=8	=8	=8	=8	=8
1D	.	1D	.	scri-	-cus,	4d\	.	.	.	2.f\	.	.	.	1.ryy
.	.	.	.	.	.	4c\	.	.	.	.	.	.	.	.
.	.	.	.	.	.	4A\	.	.	.	.	.	.	.	.
.	.	.	.	.	.	4B\	.	.	.	8e\L	.	.	.	.
.	.	.	.	.	.	.	.	.	.	8f\J	.	.	.	.
!	!	!	!	!	!	!LO:LB:g=original	!	!	!	!	!	!	!	!
2E\	6	2E\	.	-bis	et	(>4c\	-dant	-bis	et	2g\	-dant	-[[tis]]-	.	.
.	.	.	.	.	.	4d\)	.	.	.	.	.	.	.	.
=9	=9	=9	=9	=9	=9	=9	=9	=9	=9	=9	=9	=9	=9	=9
2F\	6	(>2F\	-dant	Re-	Im-	2c\	Pau-	Re-	Im-	(>2a\	Pau-	.	.	1.ryy
1G	4	2.G\)	pau-	.	pe-	2.c\	-pe-	-gu-	-pe-	2.g\)	.	-[[Re]]-	.	.
.	3	4G\	-pe-	-gu-	-ri-	4B\	.	.	-ri-	4f\	-pe-	-gu-	-ri-	.
=10	=10	=10	=10	=10	=10	=10	=10	=10	=10	=10	=10	=10	=10	=10
1.C	.	1.C	-res,	-lam,	-um,	1.c	-res	-lam	-um	1.e	-res	-lam,	-um,	1.ryy
!LO:LB:g=original	!	!LO:LB:g=original	!	!	!	!	!	!	!	!LO:LB:g=original	!	!	!	!
=11	=11	=11	=11	=11	=11	=11	=11	=11	=11	=11	=11	=11	=11	=11
*	*	*	*	*	*	*	*	*	*	*	*v:1	*v:2	*v:3	*
1c	.	1c	Aſ -	Quam	Tri-	1e	Aſ -	Quam	Tri-	1g	Aſ -	Quam	Tri-	1.ryy
2B\	6	2B\	-ser -	qui	-ni-	2d\	-ser -	qui	-ni-	2g\	-ser -	qui	-ni-	.
=12	=12	=12	=12	=12	=12	=12	=12	=12	=12	=12	=12	=12	=12	=12
1c	.	1c	-to-	a-	-ta-	(>2.e\	-to-	a-	-ta-	1g	-to-	a-	-ta-	1.ryy
.	.	.	.	.	.	4d\)	.	.	.	.	.	.	.	.
2A\	6 #	2A\	-rem	-mant,	-ti	2c\	-rem	-mant,	-ti	2a\	-rem	-mant,	-ti	.
=13	=13	=13	=13	=13	=13	=13	=13	=13	=13	=13	=13	=13	=13	=13
1G	.	1G	Ve-	et	Laus,	1B	Ve-	et	Laus	2g\	Ve-	et	Laus,	1.ryy
.	.	.	.	.	.	.	.	.	.	2e\	-ri-	Se-	et	.
2A\	.	2A\	-ri-	se-	et	2c\	-ri-	se-	et	4a\	-ta-	-[[qui]]-	ho-	.
.	.	.	.	.	.	.	.	.	.	4g\	.	.	.	.
=14	=14	=14	=14	=14	=14	=14	=14	=14	=14	=14	=14	=14	=14	=14
2.D\	.	4D\	-ta-	-[[qun]]-	Ho-	2.d\	-ta-	-qun-	Ho-	4f\	.	.	.	1.ryy
.	.	4C\	.	.	.	.	.	.	.	4e\	.	.	.	.
.	.	4D\	.	.	.	.	.	.	.	4f\	.	.	.	.
4E\	.	4E\	.	.	.	8c\L	.	.	.	4g\	.	.	.	.
.	.	.	.	.	.	8B\J	.	.	.	.	.	.	.	.
2F\	.	2F\	.	.	.	4A\	.	.	.	2a\	.	-qu(n)-	.	.
.	.	.	.	.	.	8B\L	.	.	.	.	.	.	.	.
.	.	.	.	.	.	8c\J	.	.	.	.	.	.	.	.
=15	=15	=15	=15	=15	=15	=15	=15	=15	=15	=15	=15	=15	=15	=15
2.G\	6	4G\	.	.	.	4B\	.	.	.	2g,<\	-tis	-tur	-nor	1.ryy
.	.	4F\	.	.	.	4A\	.	.	.	.	.	.	.	.
.	.	4G\	.	.	.	4B\	.	.	.	2g\	Ve-	Vi-	Laus	.
4A\	.	4A\	.	.	.	4c\	.	.	.	.	.	.	.	.
2B-X\	.	4B-X\	.	.	.	4d\	.	.	.	2f\	-ri-	-am	et	.
.	.	4A\	.	.	.	4e\	.	.	.	.	.	.	.	.
=16	=16	=16	=16	=16	=16	=16	=16	=16	=16	=16	=16	=16	=16	=16
2G\	6	2G\	.	-qu-	.	2f\	.	.	.	2b-X\	-ta-	te-	ho-	1.ryy
1A	4	1A	.	-u(n)-	.	1e	.	.	.	(>2.a\	.	.	.	.
.	3 #	.	.	.	.	.	.	.	.	4g\)	.	.	.	.
=17	=17	=17	=17	=17	=17	=17	=17	=17	=17	=17	=17	=17	=17	=17
*	*below	*	*	*	*	*	*	*	*	*	*	*	*	*
1.D	#	1.D	-tis	-tur	-nor	1.d	-tis	-tur	-nor	1.f	-tis	-nent	-nor,	1.ryy
=18	=18	=18	=18	=18	=18	=18	=18	=18	=18	=18	=18	=18	=18	=18
1G	.	1G	a-	Vi-	Sit	1B	a-	Vi-	Sit	2r	.	.	.	1.ryy
.	.	.	.	.	.	.	.	.	.	2g\	a-	Vi-	Sit	.
2E\	.	2E\	-mant	-am	per	2c\	-mant	-am	per	2g\	-mant	-am	per	.
!	!	!	!	!	!	!LO:LB:g=original	!	!	!	!	!	!	!	!
=19	=19	=19	=19	=19	=19	=19	=19	=19	=19	=19	=19	=19	=19	=19
2.F\	.	4F\	a-	te-	om-	1A	a-	te-	om-	(>2.a\	a-	te-	om-	1.ryy
.	.	4G\	.	.	.	.	.	.	.	.	.	.	.	.
.	.	4F\	.	.	.	.	.	.	.	.	.	.	.	.
4E\	.	4E\	.	.	.	.	.	.	.	4g\)	.	.	.	.
*	*above	*	*	*	*	*	*	*	*	*	*	*	*	*
2D\	6	2D\	-mant	-nent	-ne	2B\	-mant	-nent	-ne	2f\	-mant	-nent	-ne	.
=20	=20	=20	=20	=20	=20	=20	=20	=20	=20	=20	=20	=20	=20	=20
1E	.	2.E\	ve-	te-	om-	1B	Ve-	te-	om-	1g	Ve-	te-	om-	1.ryy
.	.	8D\L	.	.	.	.	.	.	.	.	.	.	.	.
.	.	8C\J	.	.	.	.	.	.	.	.	.	.	.	.
2BB\	6	2BB\	-ri	-nent	-ne	2B\	-ri	-nent	-ne	2g\	-ri	-nent	-ne	.
!LO:LB:g=original	!	!	!	!	!	!	!	!	!	!LO:LB:g=original	!	!	!	!
=21	=21	=21	=21	=21	=21	=21	=21	=21	=21	=21	=21	=21	=21	=21
*	*	*	*	*	*	*	*	*	*	*	*v:1	*v:2	*v:3	*
2C\	6	2C\	Ju-	Re-	Sae-	2e\	Ju-	Re-	ſae-	1g	Ju-	Re-	Sae-	1.ryy
1D	4	2.D\	.	.	.	(>2.d\	-di-	-gi-	-cu-	.	.	.	.	.
.	.	.	.	.	.	.	.	.	.	2f#X\	-di-	-gi-	-cu-	.
.	3 #	4D\	-di-	-gi-	-cu-	4c\)	.	.	.	.	.	.	.	.
=22	=22	=22	=22	=22	=22	=22	=22	=22	=22	=22	=22	=22	=22	=22
1.GG	.	1.GG	-ces	-am	-lum	1.B	-ces	-am	-lum	1.g	-ces,	-am,	-lum,	1.ryy
!	!	!LO:LB:g=original	!	!	!	!	!	!	!	!	!	!	!	!
=23	=23	=23	=23	=23	=23	=23	=23	=23	=23	=23	=23	=23	=23	=23
1G	.	2r	.	.	.	2r	.	.	.	2r	.	.	.	1.ryy
.	.	2G\	Fran-	At-	Qui	2B\	Fran-	At-	Qui	2g\	Fran-	At-	Qui	.
2G\	.	2G\	-gis	-que	Con-	2B\	-gis	-que	Con-	2g\	-gis	-que	Con-	.
=24	=24	=24	=24	=24	=24	=24	=24	=24	=24	=24	=24	=24	=24	=24
1G	.	1G	no-	tu-	-ci-	1B	no-	tu-	-ci-	(>2.g\	no-	tu-	-ci-	1.ryy
.	.	.	.	.	.	.	.	.	.	4f\)	.	.	.	.
2A\	.	2A\	-bis	-o	-ues	2c\	-bis	-o	-ues	2e\	-bis	-o	-ues	.
=25	=25	=25	=25	=25	=25	=25	=25	=25	=25	=25	=25	=25	=25	=25
1D	.	1D	fa-	San-	nos	[>2d\	fa-	San-	nos	1f	fa-	San-	nos	1.ryy
.	.	.	.	.	.	2d\]	.	.	.	.	.	.	.	.
2E\	6	2E\	-uos	-cto	ad-	4c\	-uos	-cto	ad-	2g\	-uos	-cto	ad-	.
.	.	.	.	.	.	4B\	.	.	.	.	.	.	.	.
=26	=26	=26	=26	=26	=26	=26	=26	=26	=26	=26	=26	=26	=26	=26
1.F	7	(>1.F	me-	Du-	-scri-	(>1A	mel-	Du-	.	2.a\	mel-	Du-	-scri-	1.ryy
.	.	.	.	.	.	.	.	.	.	4g\	.	.	.	.
.	6	.	.	.	.	2d\)	.	.	.	4a\	.	.	.	.
.	.	.	.	.	.	.	.	.	.	4b\	.	.	.	.
=27	=27	=27	=27	=27	=27	=27	=27	=27	=27	=27	=27	=27	=27	=27
1E	.	2E\)	-lis	-ctu	-bat,	1.B	.	.	-scri-	1.g#X	-lis	-ctu	-bat	1.ryy
.	.	2E\	de	San-	qui	.	.	.	.	.	.	.	.	.
2G#X\	6	2G#X\	Scri-	-cto	con-	.	.	.	.	.	.	.	.	.
=28	=28	=28	=28	=28	=28	=28	=28	=28	=28	=28	=28	=28	=28	=28
*	*below	*	*	*	*	*	*	*	*	*	*	*	*	*
1A	#	1A	-ptu-	Du-	-Ci-	1.A	-lis	-ctu	-bat	2r	.	.	.	1.ryy
.	.	.	.	.	.	.	.	.	.	(>4a\	de	re-	Su-	.
.	.	.	.	.	.	.	.	.	.	4g\)	.	.	.	.
*	*above	*	*	*	*	*	*	*	*	*	*	*	*	*
2AA/	#	2A\	-ris	-ctu	-ues	.	.	.	.	(>4a\	-Scri-	.	-per-	.
.	.	.	.	.	.	.	.	.	.	4e\)	.	.	.	.
=29	=29	=29	=29	=29	=29	=29	=29	=29	=29	=29	=29	=29	=29	=29
1D	#	2r	.	.	.	2r	.	.	.	1f#X	-ptu-	-de-	-no-	1.ryy
.	.	2D\	de	San-	nos	(>4d\	de	re-	Su-	.	.	.	.	.
.	.	.	.	.	.	4c\)	.	.	.	.	.	.	.	.
2F#X\	6	2F#X\	Scri-	-cto	ad-	(>4d\	-Scri-	.	-per-	2f#\	-ris	-unt	-vum	.
.	.	.	.	.	.	4A\)	.	.	.	.	.	.	.	.
=30	=30	=30	=30	=30	=30	=30	=30	=30	=30	=30	=30	=30	=30	=30
1G	5	1G	-ptu-	Du-	-scri-	1B	-ptu-	-de-	-no-	2r	.	.	.	1.ryy
.	6	.	.	.	.	.	.	.	.	2g\	de	san-	su-	.
2G#X\	5	2G#X\	-ris	-ctu	-bat	2B\	-ris	-unt	-vum	2b\	Scri-	-cto	-per-	.
.	6	.	.	.	.	.	.	.	.	.	.	.	.	.
!	!	!	!	!	!	!LO:PB:g=original	!	!	!	!	!	!	!	!
=31	=31	=31	=31	=31	=31	=31	=31	=31	=31	=31	=31	=31	=31	=31
2.A\	.	2r	.	.	.	2r	.	.	.	1a	-ptu-	Duc-	-no-	1.ryy
.	.	(>4A\	de	re-	Su-	(>4c\	de	re-	Su-	.	.	.	.	.
4G\	.	4G\)	.	.	.	4B\)	.	.	.	.	.	.	.	.
4A\	.	(>4A\	Scri-	.	-per-	(>4c\	Scri-	.	-per-	2g\	-ris	-tu	-vum	.
4E\	.	4E\)	.	.	.	4G\)	.	.	.	.	.	.	.	.
!LO:LB:g=original	!	!	!	!	!	!	!	!	!	!	!	!	!	!
=32	=32	=32	=32	=32	=32	=32	=32	=32	=32	=32	=32	=32	=32	=32
2.F\	.	2.F\	-ptu-	-de-	-no-	2.A\	-ptu-	-de-	-no-	(>2c\	diſ-	ad	Ci-	1.ryy
.	.	.	.	.	.	.	.	.	.	1f)	.	.	.	.
4E\	.	4E\	.	.	.	4G\	.	-unt	-vum	.	.	.	.	.
2D\	5	2D\	-ris	-unt	-vum	4A\	-ris	ad	.	.	.	.	.	.
.	6	.	.	.	.	4B\	.	.	.	.	.	.	.	.
=33	=33	=33	=33	=33	=33	=33	=33	=33	=33	=33	=33	=33	=33	=33
2AA/	.	2A\	diſ-	ad	Ci-	2A\	diſ-	Pa-	Ci-	1e	.	Pa-	.	1.ryy
1E	4	2.E\	.	Pa-	.	2.A\	-se-	-tri-	-ui-	.	.	.	.	.
.	.	.	.	.	.	.	.	.	.	2e\	-se-	-tri-	-ui-	.
!	!	!	!	!	!	!LO:TX:b:t=P:problem=# below	!	!	!	!	!	!	!	!
.	3 #	4E\	-se-	-tri-	-ui-	4G#X/	.	.	.	.	.	.	.	.
=34	=34	=34	=34	=34	=34	=34	=34	=34	=34	=34	=34	=34	=34	=34
!	!	!LO:TX:b:i:t=In 1mis Vesperis et in 2dis vertus idem\nUt Digni efficiamur promiſsionib(us) Christi.	!	!	!	!LO:TX:b:i:t=In 1mis Vesperis et in 2dis vert(us) Idem\nUt Digni efficiamur promiſsionib(us) Chrysti.	!	!	!	!LO:TX:b:i:t=In primis Vesperit. et in 2dis idem vertus \nVt Digni efficiamur promiſsionib(us) Christi.	!	!	!	!
1.AAl	.	1.AAl	-rens.	-am	-um.	1.Al	-rens.	-am	-um.	1.el;;	-rens	-am	-um	1.ryy
==	==	==	==	==	==	==	==	==	==	==	==	==	==	==
*-	*-	*-	*-	*-	*-	*-	*-	*-	*-	*-	*-	*-	*-	*-
!!!system-decoration: [(s1,s2,s3,s4)]<s5>
!!!RDF**kern: > = above
!!!RDF**kern: < = below
!!!RDF**kern: l = terminal long
!!!ENC: Filip Voros
!!!END: 2021-10-27
!!!ENC: Andrzej Kubiczek
!!!END: 2021-11-19
